X:250
T: Der verwundete Knabe (21c), S. 89f
N: T0139
O: Luxemburg
S: Singendes Volk, Esch-Alzette 1937 posth.]
N: Heffingen, fff Marie Berchem, 1906
R: Liebeslieder]
M: 2/4
L: 1/8
K: G
D2 | B2AA | G2D2
ee | d3c | B2d2 | A2z2
dd | dddc | B3c | d2
ee | ddcB | A3B | c2
ce | d2dc | B2

